X:1
T:Ting-a-ling-a Jingle
T:Ting-a- ling-a jingle
T:(Christmas Lullaby)
T:Vaughn Horton
C:Vaughn Horton
Z:All Rights Reserved
L:1/4
M:3/4
K:G
V:1 treble 
%%MIDI program 4
V:1
"^Verse:" z2 D/D/ |"G" D B B | B A G |"D7" G F"G" =F |"D7" F2 D/D/ | D F A | c B F | %7
w: On the|night be- fore|Christ- mas when|San- ta is|near all the|chil- dren to|Dream- land will|
"Gmaj7" A G"C" E |"G" D2 D/D/ | D B B | B A G |"G7" G B d |"C" c2 A/B/ | c B A |"G" B G B | %15
w: soon dis- ap-|pear but there's|one lit- tle|dar- ling that|won't close an|eye till you|call for the|sand- man with|
"D7" A E F |"G" G3 ||"^Chorus:" z3 |:"G" D B/B/ B/B/ | B A G |"C" G"D7" F =F | F3 | D c/c/ c/c/ | %23
w: this lull- a-|by||Sing ting- a- ling a|jin- gle and|hold me so|tight|sing Ting- a- ling a|
 c B F | A"G" G"C" E |"G" D3 | D B/B/ B/B/ | B A G |"G7" G B d |"C" c3 | E c/c/ c/c/ |"G" B G B | %32
w: jin- gle and|kiss me good|night|I ci- cles on the|win- dow and|snow on the|ground,|sing ting- a- ling a|jin- gle till|
"D7" A E F |1"G" G2 z :|2"G" G3 |] %35
w: San- ~ta comes|round.|round.|

